Yaru++/apps/16/asunder.svg

<svg height="16" width="16" xmlns="http://www.w3.org/2000/svg">
  <path d="m9.0371094.07421875v.00195313c.0012886.00017889.0026177-.00017953.0039062 0 .18625.45900001.3246958 1.03135752.5097656 1.49218752-.2572298.16447-.5092662.3311094-.7539062.5058594-.24462.1747598-.4824975.3563081-.7109375.5488281 0 .03381.3900731.3569881.7519531.6738281l.6601563.578125-.859375.5703125c-.45756.30472-.7179844.4791-.8652344.5625-.00107.0008919-.0027963.0010831-.0039063.0019531.0766731-.0062055.1535491-.0094662.2304688-.0097656 1.6568542 0 3 1.3431458 3 3s-1.3431458 3-3 3-3-1.3431458-3-3c.0010976-1.5005271 1.1106846-2.7694609 2.5976562-2.9707031.0039864-.0399522.1069618-.2993369.2363282-.5917969.13187-.29811.2229781-.5463406.2050781-.5566406-.4783-.46091-.7841062-.7486325-1.3164063-1.2578125.1956702-.20667.3683701-.3944213.53125-.5820313.1628801-.18761.3158469-.374815.4667969-.578125l-.6582031-.7910156c-.2974844-.35819817-.3517609-.40704986-.4765625-.5390625-3.7422604.66899927-6.5859375 3.93254-6.5859375 7.8671875 0 4.41828 3.58172 8 8 8s8-3.58172 8-8c0-4.0659708-3.035757-7.41618581-6.9628906-7.92578125zm-1.0371094 6.42578125c-.8284271 0-1.5.6715729-1.5 1.5s.6715729 1.5 1.5 1.5 1.5-.6715729 1.5-1.5-.6715729-1.5-1.5-1.5z" fill="#808080"/>
</svg>

<svg xmlns="http://www.w3.org/2000/svg" width="16" height="16" version="1.1">
 <g transform="translate(-272,-160)">
  <path style="fill:#808080" d="M 9.0371094 0.07421875 L 9.0371094 0.076171875 C 9.038398 0.076350768 9.0397271 0.075992348 9.0410156 0.076171875 C 9.2272656 0.53517189 9.3657114 1.1075294 9.5507812 1.5683594 C 9.2935514 1.7328294 9.041515 1.8994688 8.796875 2.0742188 C 8.552255 2.2489786 8.3143775 2.4305269 8.0859375 2.6230469 C 8.0859375 2.6568569 8.4760106 2.980035 8.8378906 3.296875 L 9.4980469 3.875 L 8.6386719 4.4453125 C 8.1811119 4.7500325 7.9206875 4.9244125 7.7734375 5.0078125 C 7.7723675 5.0087044 7.7706412 5.0088956 7.7695312 5.0097656 C 7.8462043 5.0035601 7.9230803 5.0002994 8 5 C 9.6568542 5 11 6.3431458 11 8 C 11 9.6568542 9.6568542 11 8 11 C 6.3431458 11 5 9.6568542 5 8 C 5.0010976 6.4994729 6.1106846 5.2305391 7.5976562 5.0292969 C 7.6016426 4.9893447 7.704618 4.72996 7.8339844 4.4375 C 7.9658544 4.13939 8.0569625 3.8911594 8.0390625 3.8808594 C 7.5607625 3.4199494 7.2549563 3.1322269 6.7226562 2.6230469 C 6.9183264 2.4163769 7.0910263 2.2286256 7.2539062 2.0410156 C 7.4167863 1.8534056 7.5697531 1.6662006 7.7207031 1.4628906 L 7.0625 0.671875 C 6.7650156 0.31367683 6.7107391 0.26482514 6.5859375 0.1328125 C 2.8436771 0.80181177 0 4.0653525 0 8 C 0 12.41828 3.58172 16 8 16 C 12.41828 16 16 12.41828 16 8 C 16 3.9340292 12.964243 0.58381419 9.0371094 0.07421875 z M 8 6.5 C 7.1715729 6.5 6.5 7.1715729 6.5 8 C 6.5 8.8284271 7.1715729 9.5 8 9.5 C 8.8284271 9.5 9.5 8.8284271 9.5 8 C 9.5 7.1715729 8.8284271 6.5 8 6.5 z" transform="translate(272,160)"/>
 </g>
</svg>
